X:4892
T:Over the muir to Maggie
O:england
M:4/4
N:different from the Irish tune of the same name.
L:1/8
K:G
g>e|\
d2B2 G2B2 | A2a4ge | d2B2g2B2 | d2g2d3B | \
c2e2A2g2 | agfe fgaf |
gage dBGB | d2g2-g2 :|\
|:g>e|\
dBgB G3B | A2a4ge | dBgB GABc | dgfe dedB |
cecA BdBG | Aaga fgaf | gage dBGB | d2g2-g2:|


